img/logo-w.svg

<svg width="90" height="42" viewBox="0 0 90 42" fill="none" xmlns="http://www.w3.org/2000/svg">
<path d="M13.166 0.579673H13.8604V18.6091L0.694336 2.52573V18.3473H0V0.317871L13.166 16.375V0.579673Z" fill="white"/>
<path d="M20.25 16.9161C19.1514 15.7903 18.6064 14.4726 18.6064 12.9716C18.6064 11.4706 19.1602 10.1703 20.2764 9.07074C21.3926 7.97117 22.7285 7.42139 24.293 7.42139C25.8574 7.42139 27.1934 7.97117 28.3008 9.07074C29.4082 10.1703 29.9619 11.4706 29.9619 12.9803C29.9619 14.49 29.417 15.799 28.3359 16.9248C27.2549 18.0505 25.9453 18.6091 24.3984 18.6091H24.1875C22.6582 18.6091 21.3486 18.0418 20.25 16.9161ZM29.1973 13.0327C29.1973 11.6975 28.7139 10.5456 27.7559 9.55944C26.7891 8.58204 25.6465 8.09335 24.3105 8.09335C22.9746 8.09335 21.8145 8.59077 20.8389 9.57689C19.8633 10.563 19.3711 11.7237 19.3711 13.0501C19.3711 14.3766 19.8633 15.5285 20.8389 16.4972C21.8145 17.4659 22.9746 17.9545 24.3193 17.9545C25.6641 17.9545 26.8154 17.4659 27.7646 16.4972C28.7227 15.5198 29.1973 14.3679 29.1973 13.0327Z" fill="white"/>
<path d="M33.5127 7.69183H34.3037L38.7158 17.0033L40.79 12.6661L38.4785 7.73547H39.2432L41.1768 11.9243L43.1543 7.68311H43.8662L41.5283 12.6573L43.5762 17.0382L47.9443 7.70929H48.6387L43.5586 18.609L41.124 13.4253L38.6631 18.609L33.5127 7.69183Z" fill="white"/>
<path d="M63.501 7.69192V18.3473H62.7363V15.6943C62.2881 16.5932 61.6201 17.3088 60.7324 17.8236C59.8447 18.3473 58.8867 18.6091 57.8672 18.6091C56.3115 18.6091 54.9756 18.0593 53.8594 16.9597C52.7432 15.8601 52.1895 14.5511 52.1895 13.0152C52.1895 11.4793 52.7432 10.1703 53.8594 9.07074C54.9756 7.97117 56.3115 7.42139 57.8672 7.42139C58.8867 7.42139 59.8623 7.69192 60.7852 8.22425C61.7168 8.7653 62.3672 9.47217 62.7275 10.3536V7.67446H63.501V7.69192ZM52.9541 13.0414C52.9541 14.3679 53.4463 15.5198 54.4219 16.4885C55.3975 17.4571 56.5576 17.9458 57.9023 17.9458C59.2471 17.9458 60.3984 17.4571 61.3477 16.4885C62.3057 15.5198 62.7803 14.3679 62.7803 13.0327C62.7803 11.6975 62.2969 10.5456 61.3389 9.55944C60.3721 8.58204 59.2295 8.09335 57.8936 8.09335C56.5576 8.09335 55.3975 8.59077 54.4219 9.57689C53.4375 10.5543 52.9541 11.7149 52.9541 13.0414Z" fill="white"/>
<path d="M73.6172 3.38086V4.04409C72.6943 4.04409 71.9121 4.35825 71.2705 4.9953C70.6289 5.62363 70.3037 6.42649 70.3037 7.38643V13.6173H73.6436V14.2805H70.3037V18.3559H69.5391V7.3777C69.5391 6.20832 69.9346 5.24838 70.7344 4.49788C71.5254 3.75611 72.4922 3.38086 73.6172 3.38086Z" fill="white"/>
<path d="M79.4268 5.10906C78.9697 5.10906 78.7324 4.89962 78.7324 4.47201C78.7324 4.0444 78.9609 3.83496 79.4268 3.83496C79.8926 3.83496 80.1211 4.0444 80.1211 4.47201C80.1123 4.8909 79.8838 5.10906 79.4268 5.10906ZM79.8047 7.70963V18.3475H79.04V7.70963H79.8047Z" fill="white"/>
<path d="M90 17.8237V18.487C88.8662 18.487 87.9082 18.1117 87.1172 17.3612C86.3262 16.6107 85.9219 15.6508 85.9219 14.4814V3.39844H86.6865V7.70944H89.9824V8.37267H86.6865V14.4814C86.6865 15.4413 87.0117 16.2442 87.6533 16.8725C88.2949 17.5096 89.0771 17.8237 90 17.8237Z" fill="white"/>
<path d="M20.2852 41.6817L15.9258 31.6372H16.418L20.3555 40.6781L22.2012 36.402L20.1445 31.6372H20.6191L22.4648 35.9657L24.3633 31.6372H24.7324L22.667 36.3845L24.5478 40.713L28.5644 31.6372H28.9248L24.4951 41.6817L22.3857 36.8645L20.2852 41.6817Z" fill="#E2E2E2"/>
<path d="M32.9414 41.6646H32.8184C31.9834 41.6646 31.2451 41.3504 30.6211 40.7221C29.9971 40.0938 29.6895 39.3607 29.6895 38.5317C29.6895 37.6939 29.9971 36.9783 30.6211 36.3675C31.2363 35.7566 32.001 35.4512 32.915 35.4512C33.8203 35.4512 34.6025 35.809 35.2617 36.5333L31.0957 40.6087C31.667 41.0625 32.2207 41.2894 32.7481 41.2894C33.2754 41.2894 33.75 41.1672 34.1719 40.9316C34.5938 40.6872 34.9365 40.3643 35.209 39.9629V40.6348C34.5938 41.3243 33.8291 41.6646 32.9414 41.6646ZM32.8008 35.8264C32.0977 35.8264 31.4736 36.097 30.9287 36.638C30.3838 37.1791 30.1113 37.7987 30.1113 38.4968C30.1113 39.1949 30.3486 39.8145 30.8145 40.3381L34.6729 36.5333C34.1279 36.062 33.5039 35.8264 32.8008 35.8264Z" fill="#E2E2E2"/>
<path d="M40.3769 41.2545V41.621C39.7529 41.621 39.2168 41.4116 38.7773 40.9927C38.3379 40.5738 38.1182 40.0415 38.1182 39.3957V31.6289H38.54V39.3957C38.54 39.928 38.7158 40.3731 39.0762 40.7222C39.4277 41.08 39.8584 41.2545 40.3769 41.2545Z" fill="#E2E2E2"/>
<path d="M45.2901 41.2545V41.621C44.666 41.621 44.1299 41.4116 43.6904 40.9927C43.251 40.5738 43.0312 40.0415 43.0312 39.3957V31.6289H43.4531V39.3957C43.4531 39.928 43.6289 40.3731 43.9893 40.7222C44.3408 41.08 44.7803 41.2545 45.2901 41.2545Z" fill="#E2E2E2"/>
<path d="M48.3662 41.5074H47.9443V35.5819H48.3662V36.7775C48.8145 35.8787 49.5879 35.4336 50.6689 35.4336C51.4072 35.4336 52.0312 35.6867 52.541 36.1928C53.042 36.699 53.2969 37.3186 53.2969 38.0516V41.5074H52.875V38.0603C52.875 37.4582 52.6641 36.9259 52.2334 36.4808C51.8027 36.0357 51.2842 35.8088 50.6777 35.8088C50.0713 35.8088 49.5352 36.0357 49.0693 36.4808C48.6035 36.9259 48.375 37.4582 48.375 38.0603V41.5074H48.3662Z" fill="#E2E2E2"/>
<path d="M59.458 41.6646H59.335C58.4912 41.6646 57.7617 41.3504 57.1377 40.7221C56.5137 40.0938 56.2061 39.3607 56.2061 38.5317C56.2061 37.6939 56.5137 36.9783 57.1377 36.3675C57.7529 35.7566 58.5176 35.4512 59.4316 35.4512C60.3457 35.4512 61.1191 35.809 61.7783 36.5333L57.6211 40.6087C58.1924 41.0625 58.7461 41.2894 59.2734 41.2894C59.8008 41.2894 60.2754 41.1672 60.6973 40.9316C61.1191 40.6872 61.4619 40.3643 61.7344 39.9629V40.6348C61.1103 41.3243 60.3545 41.6646 59.458 41.6646ZM59.3174 35.8264C58.6143 35.8264 57.9902 36.097 57.4453 36.638C56.9004 37.1791 56.6279 37.7987 56.6279 38.4968C56.6279 39.1949 56.8652 39.8145 57.3311 40.3381L61.1894 36.5333C60.6445 36.062 60.0205 35.8264 59.3174 35.8264Z" fill="#E2E2E2"/>
<path d="M65.9268 35.8003C65.6982 35.8003 65.4961 35.8788 65.3203 36.0272C65.1445 36.1756 65.0566 36.3588 65.0566 36.577C65.0566 36.7951 65.1533 36.9959 65.3555 37.1791C65.5576 37.3624 65.7949 37.5282 66.0674 37.6853C66.3486 37.8424 66.6299 37.9994 66.9111 38.1827C67.1924 38.3572 67.4385 38.5841 67.6318 38.8547C67.8252 39.1252 67.9307 39.4393 67.9307 39.7884C67.9307 40.3033 67.7373 40.7484 67.3418 41.1149C66.9463 41.4814 66.4717 41.6647 65.918 41.6647C65.5664 41.6647 65.2324 41.5861 64.9336 41.4378C64.626 41.2807 64.4062 41.08 64.2656 40.8269V40.1986C64.5996 40.9316 65.1445 41.3069 65.8828 41.3069C66.3398 41.3069 66.7266 41.1672 67.043 40.888C67.3594 40.6087 67.5088 40.2946 67.5088 39.9455C67.5088 39.5964 67.4121 39.3084 67.21 39.0728C67.0078 38.8372 66.7705 38.6365 66.4893 38.4707C66.208 38.3049 65.9268 38.1391 65.6455 37.9733C65.3643 37.8074 65.127 37.6155 64.9336 37.3798C64.7314 37.1442 64.6348 36.8737 64.6348 36.5683C64.6348 36.2541 64.7578 35.9923 65.0127 35.7829C65.2676 35.5647 65.5928 35.46 65.9883 35.46C66.3838 35.46 66.7266 35.617 67.0078 35.9225V36.4635C66.7178 36.0097 66.3574 35.8003 65.9268 35.8003Z" fill="#E2E2E2"/>
<path d="M72.0791 35.8003C71.8506 35.8003 71.6484 35.8788 71.4727 36.0272C71.2969 36.1756 71.209 36.3588 71.209 36.577C71.209 36.7951 71.3057 36.9959 71.5078 37.1791C71.71 37.3624 71.9473 37.5282 72.2197 37.6853C72.501 37.8424 72.7822 37.9994 73.0635 38.1827C73.3447 38.3572 73.5908 38.5841 73.7842 38.8547C73.9775 39.1252 74.083 39.4393 74.083 39.7884C74.083 40.3033 73.8896 40.7484 73.4941 41.1149C73.0986 41.4814 72.624 41.6647 72.0703 41.6647C71.7187 41.6647 71.3848 41.5861 71.0859 41.4378C70.7783 41.2807 70.5586 41.08 70.418 40.8269V40.1986C70.752 40.9316 71.2969 41.3069 72.0352 41.3069C72.4922 41.3069 72.8789 41.1672 73.1953 40.888C73.5117 40.6087 73.6699 40.2946 73.6699 39.9455C73.6699 39.5964 73.5732 39.3084 73.3711 39.0728C73.1689 38.8372 72.9316 38.6365 72.6504 38.4707C72.3691 38.3049 72.0879 38.1391 71.8066 37.9733C71.5254 37.8074 71.2881 37.6155 71.0947 37.3798C70.8926 37.1442 70.7959 36.8737 70.7959 36.5683C70.7959 36.2541 70.9189 35.9923 71.1738 35.7829C71.4287 35.5647 71.7539 35.46 72.1494 35.46C72.5449 35.46 72.8877 35.617 73.1689 35.9225V36.4635C72.8701 36.0097 72.5098 35.8003 72.0791 35.8003Z" fill="#E2E2E2"/>
</svg>

<svg width="90" height="42" fill="none" xmlns="http://www.w3.org/2000/svg"><path d="M13.166.58h.694v18.03L.694 2.525v15.821H0V.317l13.166 16.058V.58zm7.084 16.336c-1.099-1.126-1.644-2.443-1.644-3.944s.554-2.802 1.67-3.901c1.117-1.1 2.453-1.65 4.017-1.65 1.564 0 2.9.55 4.008 1.65 1.107 1.1 1.66 2.4 1.66 3.91 0 1.509-.544 2.818-1.625 3.944-1.081 1.125-2.39 1.684-3.938 1.684h-.21c-1.53 0-2.84-.567-3.938-1.693zm8.947-3.883c0-1.335-.483-2.487-1.441-3.474-.967-.977-2.11-1.466-3.445-1.466-1.336 0-2.497.498-3.472 1.484-.976.986-1.468 2.147-1.468 3.473 0 1.327.492 2.478 1.468 3.447.976.969 2.136 1.457 3.48 1.457 1.345 0 2.496-.488 3.446-1.457.958-.977 1.432-2.13 1.432-3.464zm4.316-5.341h.79l4.413 9.311 2.074-4.337-2.312-4.93h.765l1.934 4.188 1.977-4.24h.712l-2.338 4.973 2.048 4.381 4.368-9.329h.695l-5.08 10.9-2.435-5.184-2.46 5.184-5.151-10.917zm29.988 0v10.655h-.765v-2.653a4.995 4.995 0 01-2.004 2.13 5.55 5.55 0 01-2.865.785c-1.555 0-2.891-.55-4.008-1.65-1.116-1.099-1.67-2.408-1.67-3.944s.554-2.845 1.67-3.944c1.117-1.1 2.453-1.65 4.008-1.65 1.02 0 1.995.27 2.918.803.932.541 1.582 1.248 1.943 2.13v-2.68h.773v.018zm-10.547 5.35c0 1.326.492 2.478 1.468 3.446.976.97 2.136 1.458 3.48 1.458 1.345 0 2.496-.489 3.446-1.458.958-.968 1.432-2.12 1.432-3.455s-.483-2.487-1.441-3.474c-.967-.977-2.11-1.466-3.445-1.466-1.336 0-2.496.498-3.472 1.484-.984.977-1.468 2.138-1.468 3.464zM73.617 3.38v.664c-.923 0-1.705.314-2.347.951-.641.629-.966 1.431-.966 2.391v6.231h3.34v.663h-3.34v4.076h-.765V7.378c0-1.17.396-2.13 1.195-2.88.791-.742 1.758-1.117 2.883-1.117zm5.81 1.73c-.457 0-.695-.21-.695-.638 0-.428.229-.637.695-.637.466 0 .694.21.694.637-.009.419-.237.637-.694.637zm.378 2.6v10.637h-.765V7.71h.765zM90 17.824v.663c-1.134 0-2.092-.375-2.883-1.126-.79-.75-1.195-1.71-1.195-2.88V3.398h.764V7.71h3.296v.664h-3.296v6.108c0 .96.326 1.763.967 2.391.642.638 1.424.952 2.347.952z" fill="#fff"/><path d="M20.285 41.682l-4.36-10.045h.493l3.938 9.041 1.845-4.276-2.056-4.765h.474l1.846 4.329 1.898-4.329h.37l-2.066 4.748 1.88 4.328 4.017-9.076h.36l-4.429 10.045-2.11-4.818-2.1 4.818zm12.656-.017h-.123c-.835 0-1.573-.315-2.197-.943-.624-.628-.931-1.361-.931-2.19 0-.838.307-1.554.931-2.164.615-.611 1.38-.917 2.294-.917.905 0 1.688.358 2.347 1.082l-4.166 4.076c.571.453 1.125.68 1.652.68a2.88 2.88 0 001.424-.357 3.138 3.138 0 001.037-.97v.673c-.615.69-1.38 1.03-2.268 1.03zm-.14-5.839c-.703 0-1.327.271-1.872.812-.545.541-.818 1.16-.818 1.859 0 .698.238 1.318.703 1.841l3.859-3.805a2.78 2.78 0 00-1.872-.707zm7.576 5.429v.366c-.624 0-1.16-.21-1.6-.628-.44-.42-.659-.952-.659-1.597v-7.767h.422v7.767c0 .532.176.977.536 1.326.352.358.782.532 1.3.532zm4.913 0v.366c-.624 0-1.16-.21-1.6-.628-.439-.42-.659-.952-.659-1.597v-7.767h.422v7.767c0 .532.176.977.536 1.326.352.358.791.532 1.301.532zm3.076.252h-.422v-5.925h.422v1.196c.449-.9 1.222-1.344 2.303-1.344.738 0 1.362.253 1.872.759.501.506.756 1.126.756 1.859v3.455h-.422V38.06a2.2 2.2 0 00-.642-1.58c-.43-.444-.949-.671-1.555-.671-.607 0-1.143.227-1.609.672-.466.445-.694.977-.694 1.58v3.446h-.009zm11.092.158h-.123c-.844 0-1.573-.315-2.197-.943-.624-.628-.932-1.361-.932-2.19 0-.838.308-1.554.932-2.164.615-.611 1.38-.917 2.294-.917.914 0 1.687.358 2.346 1.082l-4.157 4.076c.571.453 1.125.68 1.652.68.528 0 1.002-.122 1.424-.357a3.14 3.14 0 001.037-.97v.673c-.624.69-1.38 1.03-2.276 1.03zm-.14-5.839c-.704 0-1.328.271-1.873.812-.545.541-.817 1.16-.817 1.859 0 .698.237 1.318.703 1.841l3.858-3.805a2.78 2.78 0 00-1.872-.707zm6.609-.026a.917.917 0 00-.607.227.692.692 0 00-.263.55c0 .218.096.419.299.602.202.183.439.35.711.506.282.157.563.314.844.498.281.174.528.401.72.672.194.27.3.584.3.933 0 .515-.194.96-.59 1.327-.395.366-.87.55-1.423.55-.352 0-.686-.079-.984-.227-.308-.157-.528-.358-.668-.611v-.628c.334.733.878 1.108 1.617 1.108.457 0 .844-.14 1.16-.419.316-.28.466-.593.466-.942 0-.35-.097-.638-.299-.873a2.84 2.84 0 00-.72-.602l-.844-.498a2.627 2.627 0 01-.712-.593 1.206 1.206 0 01-.3-.812c0-.314.124-.576.379-.785.255-.218.58-.323.975-.323.396 0 .739.157 1.02.462v.542c-.29-.454-.65-.664-1.081-.664zm6.153 0a.917.917 0 00-.607.227.692.692 0 00-.264.55c0 .218.097.419.299.602.202.183.44.35.712.506.281.157.562.314.844.498.28.174.527.401.72.672.194.27.299.584.299.933 0 .515-.193.96-.589 1.327-.395.366-.87.55-1.424.55a2.21 2.21 0 01-.984-.227c-.308-.157-.527-.358-.668-.611v-.628c.334.733.879 1.108 1.617 1.108.457 0 .844-.14 1.16-.419.317-.28.475-.593.475-.942 0-.35-.097-.638-.299-.873a2.84 2.84 0 00-.72-.602l-.844-.498a2.627 2.627 0 01-.712-.593 1.206 1.206 0 01-.3-.812c0-.314.124-.576.379-.785.255-.218.58-.323.975-.323.396 0 .739.157 1.02.462v.542c-.299-.454-.66-.664-1.09-.664z" fill="#E2E2E2"/></svg>
